rospo-newyear-light/symbolic/categories/preferences-other-symbolic.svg

<svg xmlns="http://www.w3.org/2000/svg" width="16" height="16" version="1.1">
 <path style="fill:#5c616c" d="M 11.62,0.11988 C 12.01,0.01988 12.41,0.00988 12.79,0.03988 L 11.43,2.3399 C 11.15,2.8199 11.3,3.4099 11.78,3.6899 L 12.65,4.1999 C 13.13,4.4799 13.73,4.3199 14.01,3.8499 L 15.37,1.5399 C 15.58,1.8499 15.77,2.2099 15.87,2.5899 16.36,4.4499 15.24,6.3399 13.38,6.8299 12.99,6.9299 12.59,6.9399 12.21,6.9099 L 11.4,8 7.99,7.9999 C 7.99,7.9999 9.51,5.4199 9.62,5.4099 9.41,5.0899 9.22,4.7399 9.12,4.3499 8.63,2.4999 9.75,0.59988 11.62,0.11988 Z"/>
 <path style="fill:#5c616c" d="M 3.6,0.71988 C 3.37,0.76988 3.15,0.84988 2.94,0.93988 2.92,1.5599 3.03,2.3799 2.78,2.5899 2.55,2.7999 1.75,2.6299 1.13,2.5599 0.99998,2.7999 0.9,3.0499 0.82,3.3099 1.3,3.7099 1.96,4.1499 1.97,4.4699 1.99,4.7899 1.35,5.2699 0.91,5.7199 1.02,5.9799 1.16,6.2099 1.32,6.4399 1.93,6.3099 2.68,6.0599 2.94,6.2499 3.2,6.4399 3.21,7.2599 3.28,7.8699 3.53,7.9499 3.8,7.9799 4.06,7.9999 4.34,7.4499 4.63,6.6799 4.94,6.5899 5.25,6.5099 5.9,7.0499 6.44,7.3699 6.65,7.2199 6.85,7.0399 7.03,6.8399 6.77,6.2699 6.31,5.5499 6.44,5.2499 6.56,4.9499 7.41,4.7799 8,4.5599 8,4.4899 8.03,4.4199 8.03,4.3399 8.03,4.1499 7.99,3.9599 7.96,3.7799 7.36,3.6199 6.5,3.5399 6.34,3.2499 6.18,2.9599 6.58,2.1899 6.78,1.5899 6.58,1.4199 6.36,1.2599 6.12,1.1199 5.62,1.4999 5.04,2.1199 4.72,2.0599 4.4,2.0099 4.06,1.2399 3.72,0.71988 3.68,0.72988 3.64,0.70988 3.6,0.71988 Z M 4.22,2.5899 C 5.15,2.5899 5.9,3.3499 5.9,4.2799 5.9,5.2099 5.15,5.9699 4.22,5.9699 3.29,5.9699 2.53,5.2099 2.53,4.2799 2.53,3.3499 3.29,2.5899 4.22,2.5899 Z"/>
 <path style="fill:#5c616c" d="M 3,9 H 13 V 15 C 13,15.06 13,16 12,16 H 4 C 3,16 3,15 3,15 Z"/>
 <path style="fill:#5c616c" d="M 2.5859,9 0.29297,11.293 A 1.0001,1.0001 0 1 0 1.707,12.707 L 3.4141,11 H 12.586 L 14.293,12.707 A 1.0001,1.0001 0 1 0 15.707,11.293 L 13.414,9 Z"/>
</svg>

<svg height="16" width="16" xmlns="http://www.w3.org/2000/svg"><g fill="#5c616c"><path d="m11.62.11988c.39-.1.79-.11 1.17-.08l-1.36 2.30002c-.28.48-.13 1.07.35 1.35l.87.51c.48.28 1.08.12 1.36-.35l1.36-2.31c.21.31.4.67.5 1.05.49 1.86-.63 3.75-2.49 4.24-.39.1-.79.11-1.17.08l-.81 1.0901-3.41-.0001s1.52-2.58 1.63-2.59c-.21-.32-.4-.67-.5-1.06-.49-1.85.63-3.75002 2.5-4.23002z"/><path d="m3.6.71988c-.23.05-.45.13-.66.22-.02.62002.09 1.44002-.16 1.65002-.23.21-1.03.04-1.65-.03-.13002.24-.23.49-.31.75.48.4 1.14.84 1.15 1.16.02.32-.62.8-1.06 1.25.11.26.25.49.41.72.61-.13 1.36-.38 1.62-.19s.27 1.01.34 1.62c.25.08.52.11.78.13.28-.55.57-1.32.88-1.41.31-.08.96.46 1.5.78.21-.15.41-.33.59-.53-.26-.57-.72-1.29-.59-1.59.12-.3.97-.47 1.56-.69 0-.07.03-.14.03-.22 0-.19-.04-.38-.07-.56-.6-.16-1.46-.24-1.62-.53s.24-1.06.44-1.66c-.2-.17-.42-.33-.66-.47-.5.38-1.08 1-1.4.94-.32-.05-.66-.82-1-1.34002-.04.01-.08-.01-.12 0zm .62 1.87002c.93 0 1.68.76 1.68 1.69s-.75 1.69-1.68 1.69-1.69-.76-1.69-1.69.76-1.69 1.69-1.69z"/><path d="m3 9h10v6c0 .06 0 1-1 1h-8c-1 0-1-1-1-1z"/><path d="m2.5859 9-2.29293 2.293a1.0001 1.0001 0 1 0 1.41403 1.414l1.7071-1.707h9.1719l1.707 1.707a1.0001 1.0001 0 1 0 1.414-1.414l-2.293-2.293z"/></g></svg>
